X:168
U: ~ = !turn!
%%topmargin 3cm
T:Plains of Boyle
B:Traditional Irish Fiddle Tunes. Randy Miller and Jack Perron.
Z:Transcribed by Ralph Palmer
R:Reel
L:1/8
M:C|
K:D
AFD>A {/G}FEDA | ((3ABA) GB AFDg | fedf edce | dBcA PBAGB |
AFD>A FEDA | ((3ABA) GB AFDg | fedB ((3ABA) GE | F2 D2 D2 fg ::
afge fdec | defd PBAFA | ((3ABA) FA dAFA | defd efge |
((3agf) ((3gfe) fdec | defd PBAFA | ((3ABA) FA dAGE | F2 D2 D2 fg :|]
